X: 67
T: San pi zaoliu ma
L: 1/8
M: 4/4
K: C
A2A dD2E G [I:setbarnb 1]| 
A6E2 | 
A G E AA,2C2 | 
D8 | 
A G E DC2D2 | 
d2>g2e3d | 
c> d e gd2c e | 
A8 |]

@@@ Tune index: 8735
